X:1
T:The Bonny Banks of the Virgie O
M:4/4
L:1/4
K:G
 E E3/4- F/4 GA/2-G/2| F G/2F/2 E2| Bc/2-d/2 B B3/4 A/4| G A B G3/4- A/4|\
 B B3/4 G/4 A A| B B E D/2E/2| G3/4 G/4 A3/4 G/4 F G3/4 F/4| B, E E2|\


